X:2140
T:Gan Ainm (Apples in Winter?)
O:england
R:Double Jig
C:Traditional
S:Dervish's "Harmony Hill"
A:Eire
M:6/8
L:1/8
K:A
fBB ~a3|faf ecB|~A3 cAc|efg aga|
fBB ~a3|faf ecB|Ace aga|fec Bce:|
|:f2b baf|~b3 baf|~a3 aec|Ace aga|
fbb fbb|eaa eaa|fec a2a|fec B3:|


